public/icon/svg/Next.cloud.svg

<?xml version="1.0" encoding="UTF-8"?>
<svg width="1024px" height="1024px" viewBox="0 0 1024 1024" version="1.1" xmlns="http://www.w3.org/2000/svg" xmlns:xlink="http://www.w3.org/1999/xlink">
    <title>Nextcloud</title>
    <g id="Icon-SVG" stroke="none" stroke-width="1" fill="none" fill-rule="evenodd">
        <g id="Nextcloud" transform="translate(0, -0.0008)">
            <rect id="蒙版路径" fill="#0082C9" x="0" y="0" width="1024" height="1024"></rect>
            <path d="M512.555,344.023948 C435.479375,344.023948 370.729375,396.818323 350.9575,467.814964 C333.686016,429.820588 295.665625,402.903089 251.52,402.903089 C191.154553,403.190985 142.28949,452.054759 142,512.420198 L142,512.443323 C142.266929,572.813383 191.126933,621.694025 251.496875,621.986448 L251.52,621.986448 C295.665625,621.986448 333.66,595.045823 350.934375,557.051448 C370.70625,628.088557 435.479375,680.885823 512.555,680.885823 C589.2375,680.885823 653.640625,628.692698 673.851875,558.251057 C691.40375,595.551682 728.82,621.983557 772.456875,621.983557 C832.840507,621.730276 881.732376,572.850018 882,512.466448 L882,512.441155 C881.720806,452.067547 832.853553,403.190943 772.48,402.900198 L772.456875,402.900198 C728.796875,402.900198 691.3575,429.355198 673.82875,466.632698 C653.66375,396.217073 589.260625,343.977698 512.578125,344.000815 L512.555,344.023948 Z M512.555,408.311448 C570.078217,408.311449 616.709998,454.943231 616.709998,512.466448 C616.709998,569.989665 570.078217,616.621448 512.555,616.621448 L512.0925,616.621448 C484.597437,616.621448 458.228281,605.700183 438.786335,586.258238 C419.34439,566.816292 408.42196,540.447136 408.42196,512.952073 L408.42196,512.446213 C408.292106,484.786144 419.220686,458.220795 438.777628,438.660052 C458.334571,419.09931 484.897796,408.165569 512.55789,408.290143 L512.555,408.311448 Z M251.52,467.207932 C276.865,467.207932 296.7525,487.095432 296.7525,512.463557 C296.7525,537.831682 276.888125,557.696058 251.52,557.719182 L251.0575,557.719182 C226.334328,557.715591 206.292687,537.675245 206.2875,512.952073 L206.2875,512.446213 C206.2875,487.080979 226.151875,467.213713 251.52,467.190589 L251.52,467.207932 Z M772.456875,467.207932 C797.822109,467.207932 817.7125,487.095432 817.7125,512.463557 C817.7125,537.831682 797.825,557.719182 772.456875,557.719182 L771.994375,557.719182 C747.270074,557.715591 727.227966,537.673483 727.224375,512.949182 L727.224375,512.443323 C727.224375,487.078088 747.08875,467.210823 772.456875,467.187698 L772.456875,467.207932 Z" id="形状" fill="#FFFFFF" fill-rule="nonzero"></path>
        </g>
    </g>
</svg>

<svg xmlns="http://www.w3.org/2000/svg" width="1024" height="1024"><g fill="none" fill-rule="evenodd"><path fill="#0082C9" d="M0 0h1024v1024H0z"/><path fill="#FFF" fill-rule="nonzero" d="M512.555 344.023c-77.076 0-141.826 52.795-161.597 123.791-17.272-37.994-55.292-64.912-99.438-64.912-60.365.288-109.23 49.152-109.52 109.517v.024c.267 60.37 49.127 109.25 109.497 109.543h.023c44.146 0 82.14-26.941 99.414-64.935 19.772 71.037 84.545 123.834 161.621 123.834 76.683 0 141.086-52.193 161.297-122.635 17.552 37.3 54.968 63.733 98.605 63.733 60.384-.254 109.275-49.134 109.543-109.517v-.026c-.28-60.373-49.146-109.25-109.52-109.54h-.023c-43.66 0-81.1 26.454-98.628 63.732C653.664 396.216 589.26 343.977 512.579 344l-.024.023m0 64.288c57.523 0 104.155 46.631 104.155 104.155 0 57.523-46.632 104.155-104.155 104.155h-.462a103.67 103.67 0 0 1-103.671-103.67v-.506A103.671 103.671 0 0 1 512.558 408.29l-.003.022M251.52 467.207c25.345 0 45.232 19.888 45.232 45.256s-19.864 45.232-45.232 45.255h-.463c-24.723-.003-44.764-20.044-44.77-44.767v-.506c0-25.365 19.865-45.232 45.233-45.255v.017Zm520.937 0c25.365 0 45.255 19.888 45.255 45.256s-19.887 45.255-45.255 45.255h-.463c-24.724-.003-44.766-20.045-44.77-44.77v-.505c0-25.366 19.865-45.233 45.233-45.256v.02"/></g></svg>
